X: 3091
T: HAZELDEAN
Q:"Strathspey."
R: Strathspey.
%R:strathspey
B: James Kerr "Merry Melodies" v.3 p.12 #91
Z: 2016 John Chambers <jc:trillian.mit.edu>
M: C
L: 1/16
K: A
a2 |\
ec3 B3A A3cE3F | AA3 d3c B6 a2 |\
ec3 B3A A3cE3F | Ac3 B3A A6 ::\
uc2 |\
d3cd3e f3ea3f | ec3 c3e f4 (fga2) |\
ec3 B3A A3cE3F | Ac3 B3A A6 :|

%%sep 1 1 500
%%sep 1 1 500

